X: 42335
T: Wee Tod
R: jig
M: 6/8
K: Amajor
|:E|AAA FEE|AAA fee|cee fee|BcB AFE|
AAA FEE|AAA fee|cee fee|BcB A2:|
|:B|cee e3|cee fee|f2e f2a|f2e cBB|
AAA FEE|AAA fee|cee fee|BcB A2:|

